;Generated with Cura_SteamEngine 15.01
; Default start code
G28 ; Home extruder
G1 Z15 F100

M104 S430.0
M109 S430.0
M107 ; Turn off fan
G90 ; Absolute positioning
M82 ; Extruder in absolute mode
M190 S50
; Activate all used extruder
M104 T0 S210
G92 E0 ; Reset extruder position
; Wait for all used extruders to reach temperature
M109 T0 S210
;Layer count: 50
;LAYER:0
M107
G0 F9000 X91.000 Y91.000 Z0.300
;TYPE:SKIRT
G1 F1800 X109.000 Y91.000 E0.89802

M104 S230.0
M109 S230.0
G1 Y112.00000 Y109.000 E1.79605
G1 Y94.00000 Y109.000 E2.69407
G1 Y94.00000 Y91.000 E3.59209
G0 F9000 X91.400 Y91.400
G1 F1800 X108.600 Y91.400 E4.45021

M104 S230.0
M109 S230.0
G1 Y111.60000 Y108.600 E5.30832
G1 Y94.40000 Y108.600 E6.16643
G1 Y94.40000 Y91.400 E7.02454
G0 F9000 X91.800 Y91.800
G1 F1800 X108.200 Y91.800 E7.84274

M104 S230.0
M109 S230.0
G1 Y111.20000 Y108.200 E8.66094
G1 Y94.80000 Y108.200 E9.47914
G1 Y94.80000 Y91.800 E10.29734
G1 F2400 E6.29734

M104 S230.0
M109 S230.0
G0 F9000 X95.600 Y95.600
;TYPE:WALL-INNER
G1 F2400 E10.29734

M104 S230.0
M109 S230.0
G1 F1800 X104.400 Y95.600 E10.73637

M104 S230.0
M109 S230.0
G1 Y107.40000 Y104.400 E11.17541
G1 Y98.60000 Y104.400 E11.61444
G1 Y98.60000 Y95.600 E12.05347
G0 F9000 X95.200 Y95.200
;TYPE:WALL-OUTER
G1 F1800 X104.800 Y95.200 E12.53242

M104 S230.0
M109 S230.0
G1 Y107.80000 Y104.800 E13.01136
G1 Y98.20000 Y104.800 E13.49031
G1 Y98.20000 Y95.200 E13.96926
G0 F9000 X95.739 Y96.022
;TYPE:SKIN
G1 F1800 X103.976 Y104.259 E14.55042

M104 S230.0
M109 S230.0
G0 F9000 X104.259 Y103.976
G1 F1800 X96.022 Y95.740 E15.13155

M104 S230.0
M109 S230.0
G0 F9000 X96.588 Y95.740
G1 F1800 X104.259 Y103.410 E15.67275

M104 S230.0
M109 S230.0
G0 F9000 X104.259 Y102.845
G1 F1800 X97.154 Y95.740 E16.17404

M104 S230.0
M109 S230.0
G0 F9000 X97.720 Y95.740
G1 F1800 X104.259 Y102.279 E16.63540

M104 S230.0
M109 S230.0
G0 F9000 X104.259 Y101.713
G1 F1800 X98.285 Y95.740 E17.05687

M104 S230.0
M109 S230.0
G0 F9000 X98.851 Y95.740
G1 F1800 X104.259 Y101.148 E17.43843

M104 S230.0
M109 S230.0
G0 F9000 X104.259 Y100.582
G1 F1800 X99.417 Y95.740 E17.78006

M104 S230.0
M109 S230.0
G0 F9000 X99.982 Y95.740
G1 F1800 X104.259 Y100.016 E18.08179

M104 S230.0
M109 S230.0
G0 F9000 X103.410 Y104.259
G1 F1800 X95.739 Y96.587 E18.62306

M104 S230.0
M109 S230.0
G0 F9000 X95.739 Y97.153
G1 F1800 X102.845 Y104.259 E19.12442

M104 S230.0
M109 S230.0
G0 F9000 X102.279 Y104.259
G1 F1800 X95.739 Y97.719 E19.58585

M104 S230.0
M109 S230.0
G0 F9000 X95.739 Y98.285
G1 F1800 X101.713 Y104.259 E20.00735

M104 S230.0
M109 S230.0
G0 F9000 X101.148 Y104.259
G1 F1800 X95.739 Y98.850 E20.38899

M104 S230.0
M109 S230.0
G0 F9000 X95.739 Y99.416
G1 F1800 X100.582 Y104.259 E20.73069

M104 S230.0
M109 S230.0
G0 F9000 X100.016 Y104.259
G1 F1800 X95.739 Y99.982 E21.03245

M104 S230.0
M109 S230.0
G0 F9000 X95.739 Y100.547
G1 F1800 X99.451 Y104.259 E21.29435

M104 S230.0
M109 S230.0
G0 F9000 X98.885 Y104.259
G1 F1800 X95.739 Y101.113 E21.51632

M104 S230.0
M109 S230.0
G0 F9000 X95.739 Y101.679
G1 F1800 X98.319 Y104.259 E21.69835

M104 S230.0
M109 S230.0
G0 F9000 X97.753 Y104.259
G1 F1800 X95.739 Y102.244 E21.84049

M104 S230.0
M109 S230.0
G0 F9000 X95.739 Y102.810
G1 F1800 X97.188 Y104.259 E21.94272

M104 S230.0
M109 S230.0
G0 F9000 X96.622 Y104.259
G1 F1800 X95.739 Y103.376 E22.00502

M104 S230.0
M109 S230.0
G0 F9000 X95.739 Y103.941
G1 F1800 X96.056 Y104.259 E22.02742

M104 S230.0
M109 S230.0
G0 F9000 X104.259 Y99.451
G1 F1800 X100.548 Y95.740 E22.28926

M104 S230.0
M109 S230.0
G0 F9000 X101.114 Y95.740
G1 F1800 X104.259 Y98.885 E22.51115

M104 S230.0
M109 S230.0
G0 F9000 X104.259 Y98.319
G1 F1800 X101.679 Y95.740 E22.69315

M104 S230.0
M109 S230.0
G0 F9000 X102.245 Y95.740
G1 F1800 X104.259 Y97.753 E22.83521

M104 S230.0
M109 S230.0
G0 F9000 X104.259 Y97.188
G1 F1800 X102.811 Y95.740 E22.93738

M104 S230.0
M109 S230.0
G0 F9000 X103.376 Y95.740
G1 F1800 X104.259 Y96.622 E22.99964

M104 S230.0
M109 S230.0
G0 F9000 X104.259 Y96.056
G1 F1800 X103.942 Y95.740 E23.02197

M104 S230.0
M109 S230.0
G0 X109.0 Y91.0
G0 X108.6 Y112.0
G0 X108.2 Y109.0
G0 X104.4 Y94.0
G0 X104.8 Y109.0
G0 X103.976 Y94.0
G0 X96.022 Y91.0
G0 X104.259 Y91.4
G0 X97.154 Y111.6
G0 X104.259 Y108.6
G0 X98.285 Y94.4
G0 X104.259 Y108.6
G0 X99.417 Y94.4
G0 X104.259 Y91.4
G0 X95.739 Y91.8
G0 X102.845 Y111.2
G0 X95.739 Y108.2
G0 X101.713 Y94.8
G0 X95.739 Y108.2
G0 X100.582 Y94.8
G0 X95.739 Y91.8
G0 X99.451 Y95.6
G0 X95.739 Y107.4
G0 X98.319 Y104.4
G0 X95.739 Y98.6
G0 X97.188 Y104.4
G0 X95.739 Y98.6
G0 X96.056 Y95.6
G0 X100.548 Y95.2
G0 X104.259 Y107.8
G0 X101.679 Y104.8
G0 X104.259 Y98.2
G0 X102.811 Y104.8
G0 X104.259 Y98.2
G0 X103.942 Y95.2
;LAYER:1
M106 S63
G0 F9000 X104.400 Y95.600 Z0.500
;TYPE:WALL-INNER
G1 F2220 X104.400 Y104.400 E23.31466

M104 S242.35714285714286
M109 S242.35714285714286
G1 Y98.60000 Y104.400 E23.60735
G1 Y98.60000 Y95.600 E23.90004
G1 Y107.40000 Y95.600 E24.19273
G0 F9000 X104.800 Y95.200
;TYPE:WALL-OUTER
G1 F1980 X104.800 Y104.800 E24.51203

M104 S242.35714285714286
M109 S242.35714285714286
G1 Y98.20000 Y104.800 E24.83132
G1 Y98.20000 Y95.200 E25.15062
G1 Y107.80000 Y95.200 E25.46992
G0 F9000 X104.230 Y95.739
;TYPE:SKIN
G1 F1980 X95.740 Y104.229 E25.86926

M104 S242.35714285714286
M109 S242.35714285714286
G0 F9000 X96.276 Y104.259
G1 F1980 X104.259 Y96.276 E26.24476

M104 S242.35714285714286
M109 S242.35714285714286
G0 F9000 X104.259 Y96.841
G1 F1980 X96.841 Y104.259 E26.59368

M104 S242.35714285714286
M109 S242.35714285714286
G0 F9000 X97.407 Y104.259
G1 F1980 X104.259 Y97.407 E26.91598

M104 S242.35714285714286
M109 S242.35714285714286
G0 F9000 X104.259 Y97.973
G1 F1980 X97.973 Y104.259 E27.21165

M104 S242.35714285714286
M109 S242.35714285714286
G0 F9000 X98.538 Y104.259
G1 F1980 X104.259 Y98.538 E27.48075

M104 S242.35714285714286
M109 S242.35714285714286
G0 F9000 X104.259 Y99.104
G1 F1980 X99.104 Y104.259 E27.72322

M104 S242.35714285714286
M109 S242.35714285714286
G0 F9000 X99.670 Y104.259
G1 F1980 X104.259 Y99.670 E27.93908

M104 S242.35714285714286
M109 S242.35714285714286
G0 F9000 X103.664 Y95.739
G1 F1980 X95.740 Y103.663 E28.31180

M104 S242.35714285714286
M109 S242.35714285714286
G0 F9000 X95.740 Y103.098
G1 F1980 X103.098 Y95.739 E28.65792

M104 S242.35714285714286
M109 S242.35714285714286
G0 F9000 X102.533 Y95.739
G1 F1980 X95.740 Y102.532 E28.97744

M104 S242.35714285714286
M109 S242.35714285714286
G0 F9000 X95.740 Y101.966
G1 F1980 X101.967 Y95.739 E29.27034

M104 S242.35714285714286
M109 S242.35714285714286
G0 F9000 X101.401 Y95.739
G1 F1980 X95.740 Y101.401 E29.53664

M104 S242.35714285714286
M109 S242.35714285714286
G0 F9000 X95.740 Y100.835
G1 F1980 X100.836 Y95.739 E29.77634

M104 S242.35714285714286
M109 S242.35714285714286
G0 F9000 X100.270 Y95.739
G1 F1980 X95.740 Y100.269 E29.98942

M104 S242.35714285714286
M109 S242.35714285714286
G0 F9000 X95.740 Y99.704
G1 F1980 X99.704 Y95.739 E30.17589

M104 S242.35714285714286
M109 S242.35714285714286
G0 F9000 X99.139 Y95.739
G1 F1980 X95.740 Y99.138 E30.33577

M104 S242.35714285714286
M109 S242.35714285714286
G0 F9000 X95.740 Y98.572
G1 F1980 X98.573 Y95.739 E30.46903

M104 S242.35714285714286
M109 S242.35714285714286
G0 F9000 X98.007 Y95.739
G1 F1980 X95.740 Y98.007 E30.57568

M104 S242.35714285714286
M109 S242.35714285714286
G0 F9000 X95.740 Y97.441
G1 F1980 X97.442 Y95.739 E30.65574

M104 S242.35714285714286
M109 S242.35714285714286
G0 F9000 X96.876 Y95.739
G1 F1980 X95.740 Y96.875 E30.70918

M104 S242.35714285714286
M109 S242.35714285714286
G0 F9000 X95.740 Y96.310
G1 F1980 X96.310 Y95.739 E30.73601

M104 S242.35714285714286
M109 S242.35714285714286
G0 F9000 X104.259 Y100.235
G1 F1980 X100.235 Y104.259 E30.92529

M104 S242.35714285714286
M109 S242.35714285714286
G0 F9000 X100.801 Y104.259
G1 F1980 X104.259 Y100.801 E31.08794

M104 S242.35714285714286
M109 S242.35714285714286
G0 F9000 X104.259 Y101.367
G1 F1980 X101.367 Y104.259 E31.22397

M104 S242.35714285714286
M109 S242.35714285714286
G0 F9000 X101.932 Y104.259
G1 F1980 X104.259 Y101.932 E31.33343

M104 S242.35714285714286
M109 S242.35714285714286
G0 F9000 X104.259 Y102.498
G1 F1980 X102.498 Y104.259 E31.41626

M104 S242.35714285714286
M109 S242.35714285714286
G0 F9000 X103.064 Y104.259
G1 F1980 X104.259 Y103.064 E31.47247

M104 S242.35714285714286
M109 S242.35714285714286
G0 F9000 X104.259 Y103.630
G1 F1980 X103.630 Y104.259 E31.50205

M104 S242.35714285714286
M109 S242.35714285714286
G0 F9000 X104.195 Y104.259
G1 F1980 X104.259 Y104.195 E31.50506

M104 S242.35714285714286
M109 S242.35714285714286
G0 X104.4 Y104.4
G0 X104.8 Y98.6
G0 X95.74 Y104.4
G0 X104.259 Y98.6
G0 X96.841 Y95.6
G0 X104.259 Y107.4
G0 X97.973 Y95.6
G0 X104.259 Y104.8
G0 X99.104 Y98.2
G0 X104.259 Y104.8
G0 X95.74 Y98.2
G0 X103.098 Y95.2
G0 X95.74 Y107.8
G0 X101.967 Y95.2
G0 X95.74 Y104.229
G0 X100.836 Y96.276
G0 X95.74 Y104.259
G0 X99.704 Y97.407
G0 X95.74 Y104.259
G0 X98.573 Y98.538
G0 X95.74 Y104.259
G0 X97.442 Y99.67
G0 X95.74 Y103.663
G0 X96.31 Y95.739
G0 X100.235 Y102.532
G0 X104.259 Y95.739
G0 X101.367 Y101.401
G0 X104.259 Y95.739
G0 X102.498 Y100.269
G0 X104.259 Y95.739
G0 X103.63 Y99.138
G0 X104.259 Y95.739
;LAYER:2
M106 S127
G0 F9000 X104.400 Y104.400 Z0.700
;TYPE:WALL-INNER
G1 F2700 X95.600 Y104.400 E31.79775

M104 S254.71428571428572
M109 S254.71428571428572
G1 Y98.60000 Y95.600 E32.09044
G1 Y107.40000 Y95.600 E32.38313
G1 Y107.40000 Y104.400 E32.67582
G0 F9000 X104.800 Y104.800
;TYPE:WALL-OUTER
G1 F2220 X95.200 Y104.800 E32.99512

M104 S254.71428571428572
M109 S254.71428571428572
G1 Y98.20000 Y95.200 E33.31442
G1 Y107.80000 Y95.200 E33.63371
G1 Y107.80000 Y104.800 E33.95301
G0 F9000 X103.976 Y104.259
;TYPE:SKIN
G1 F2220 X95.739 Y96.022 E34.34045

M104 S254.71428571428572
M109 S254.71428571428572
G0 F9000 X96.022 Y95.740
G1 F2220 X104.259 Y103.976 E34.72787

M104 S254.71428571428572
M109 S254.71428571428572
G0 F9000 X104.259 Y103.410
G1 F2220 X96.588 Y95.740 E35.08867

M104 S254.71428571428572
M109 S254.71428571428572
G0 F9000 X97.154 Y95.740
G1 F2220 X104.259 Y102.845 E35.42287

M104 S254.71428571428572
M109 S254.71428571428572
G0 F9000 X104.259 Y102.279
G1 F2220 X97.720 Y95.740 E35.73044

M104 S254.71428571428572
M109 S254.71428571428572
G0 F9000 X98.285 Y95.740
G1 F2220 X104.259 Y101.713 E36.01142

M104 S254.71428571428572
M109 S254.71428571428572
G0 F9000 X104.259 Y101.148
G1 F2220 X98.851 Y95.740 E36.26579

M104 S254.71428571428572
M109 S254.71428571428572
G0 F9000 X99.417 Y95.740
G1 F2220 X104.259 Y100.582 E36.49355

M104 S254.71428571428572
M109 S254.71428571428572
G0 F9000 X104.259 Y100.016
G1 F2220 X99.982 Y95.740 E36.69470

M104 S254.71428571428572
M109 S254.71428571428572
G0 F9000 X95.739 Y96.587
G1 F2220 X103.410 Y104.259 E37.05554

M104 S254.71428571428572
M109 S254.71428571428572
G0 F9000 X102.845 Y104.259
G1 F2220 X95.739 Y97.153 E37.38979

M104 S254.71428571428572
M109 S254.71428571428572
G0 F9000 X95.739 Y97.719
G1 F2220 X102.279 Y104.259 E37.69741

M104 S254.71428571428572
M109 S254.71428571428572
G0 F9000 X101.713 Y104.259
G1 F2220 X95.739 Y98.285 E37.97841

M104 S254.71428571428572
M109 S254.71428571428572
G0 F9000 X95.739 Y98.850
G1 F2220 X101.148 Y104.259 E38.23283

M104 S254.71428571428572
M109 S254.71428571428572
G0 F9000 X100.582 Y104.259
G1 F2220 X95.739 Y99.416 E38.46063

M104 S254.71428571428572
M109 S254.71428571428572
G0 F9000 X95.739 Y99.982
G1 F2220 X100.016 Y104.259 E38.66181

M104 S254.71428571428572
M109 S254.71428571428572
G0 F9000 X99.451 Y104.259
G1 F2220 X95.739 Y100.547 E38.83641

M104 S254.71428571428572
M109 S254.71428571428572
G0 F9000 X95.739 Y101.113
G1 F2220 X98.885 Y104.259 E38.98439

M104 S254.71428571428572
M109 S254.71428571428572
G0 F9000 X98.319 Y104.259
G1 F2220 X95.739 Y101.679 E39.10574

M104 S254.71428571428572
M109 S254.71428571428572
G0 F9000 X95.739 Y102.244
G1 F2220 X97.753 Y104.259 E39.20050

M104 S254.71428571428572
M109 S254.71428571428572
G0 F9000 X97.188 Y104.259
G1 F2220 X95.739 Y102.810 E39.26865

M104 S254.71428571428572
M109 S254.71428571428572
G0 F9000 X95.739 Y103.376
G1 F2220 X96.622 Y104.259 E39.31019

M104 S254.71428571428572
M109 S254.71428571428572
G0 F9000 X96.056 Y104.259
G1 F2220 X95.739 Y103.941 E39.32512

M104 S254.71428571428572
M109 S254.71428571428572
G0 F9000 X100.548 Y95.740
G1 F2220 X104.259 Y99.451 E39.49968

M104 S254.71428571428572
M109 S254.71428571428572
G0 F9000 X104.259 Y98.885
G1 F2220 X101.114 Y95.740 E39.64761

M104 S254.71428571428572
M109 S254.71428571428572
G0 F9000 X101.679 Y95.740
G1 F2220 X104.259 Y98.319 E39.76894

M104 S254.71428571428572
M109 S254.71428571428572
G0 F9000 X104.259 Y97.753
G1 F2220 X102.245 Y95.740 E39.86365

M104 S254.71428571428572
M109 S254.71428571428572
G0 F9000 X102.811 Y95.740
G1 F2220 X104.259 Y97.188 E39.93176

M104 S254.71428571428572
M109 S254.71428571428572
G0 F9000 X104.259 Y96.622
G1 F2220 X103.376 Y95.740 E39.97327

M104 S254.71428571428572
M109 S254.71428571428572
G0 F9000 X103.942 Y95.740
G1 F2220 X104.259 Y96.056 E39.98815

M104 S254.71428571428572
M109 S254.71428571428572
G0 X95.6 Y104.4
G0 X95.2 Y98.6
G0 X95.739 Y95.6
G0 X104.259 Y107.4
G0 X96.588 Y95.6
G0 X104.259 Y107.4
G0 X97.72 Y104.4
G0 X104.259 Y104.8
G0 X98.851 Y98.2
G0 X104.259 Y95.2
G0 X99.982 Y107.8
G0 X103.41 Y95.2
G0 X95.739 Y107.8
G0 X102.279 Y104.8
G0 X95.739 Y96.022
G0 X101.148 Y103.976
G0 X95.739 Y95.74
G0 X100.016 Y102.845
G0 X95.739 Y95.74
G0 X98.885 Y101.713
G0 X95.739 Y95.74
G0 X97.753 Y100.582
G0 X95.739 Y95.74
G0 X96.622 Y104.259
G0 X95.739 Y97.153
G0 X104.259 Y104.259
G0 X101.114 Y98.285
G0 X104.259 Y104.259
G0 X102.245 Y99.416
G0 X104.259 Y104.259
G0 X103.376 Y100.547
G0 X104.259 Y104.259
;LAYER:3
M106 S255
G0 F9000 X104.400 Y95.600 Z0.900
;TYPE:WALL-INNER
G1 F1320 X104.400 Y104.400 E40.28084

M104 S267.07142857142856
M109 S267.07142857142856
G1 Y98.60000 Y104.400 E40.57353
G1 Y98.60000 Y95.600 E40.86622
G1 Y107.40000 Y95.600 E41.15891
G0 F9000 X104.800 Y95.200
;TYPE:WALL-OUTER
G1 F1020 X104.800 Y104.800 E41.47821

M104 S267.07142857142856
M109 S267.07142857142856
G1 Y98.20000 Y104.800 E41.79751
G1 Y98.20000 Y95.200 E42.11680
G1 Y107.80000 Y95.200 E42.43610
G0 F9000 X104.259 Y96.558
;TYPE:FILL
G1 F1680 X96.558 Y104.259 E42.79833

M104 S267.07142857142856
M109 S267.07142857142856
G0 F9000 X101.430 Y104.259
G1 F1680 X95.739 Y98.567 E43.06604

M104 S267.07142857142856
M109 S267.07142857142856
G0 F9000 X95.740 Y99.421
G1 F1680 X99.422 Y95.739 E43.23923

M104 S267.07142857142856
M109 S267.07142857142856
G0 F9000 X98.568 Y95.740
G1 F1680 X104.259 Y101.430 E43.50690

M104 S267.07142857142856
M109 S267.07142857142856
G0 F9000 X104.259 Y102.215
G1 F1680 X102.215 Y104.259 E43.60304

M104 S267.07142857142856
M109 S267.07142857142856
G0 X104.4 Y104.4
G0 X104.8 Y98.6
G0 X96.558 Y104.4
G0 X95.739 Y98.6
G0 X99.422 Y95.6
G0 X104.259 Y107.4
G0 X102.215 Y95.6
;LAYER:4
G0 F9000 X104.400 Y104.400 Z1.100
;TYPE:WALL-INNER
G1 F1320 X95.600 Y104.400 E43.89573

M104 S279.42857142857144
M109 S279.42857142857144
G1 Y98.60000 Y95.600 E44.18842
G1 Y107.40000 Y95.600 E44.48111
G1 Y107.40000 Y104.400 E44.77380
G0 F9000 X104.800 Y104.800
;TYPE:WALL-OUTER
G1 F1020 X95.200 Y104.800 E45.09309

M104 S279.42857142857144
M109 S279.42857142857144
G1 Y98.20000 Y95.200 E45.41239
G1 Y107.80000 Y95.200 E45.73169
G1 Y107.80000 Y104.800 E46.05099
G0 F9000 X104.500 Y104.590
G0 X102.215 Y104.259
;TYPE:FILL
G1 F1800 X104.259 Y102.215 E46.14713

M104 S279.42857142857144
M109 S279.42857142857144
G0 F9000 X104.259 Y101.430
G1 F1800 X98.568 Y95.740 E46.41479

M104 S279.42857142857144
M109 S279.42857142857144
G0 F9000 X99.422 Y95.739
G1 F1800 X95.740 Y99.421 E46.58798

M104 S279.42857142857144
M109 S279.42857142857144
G0 F9000 X95.739 Y98.567
G1 F1800 X101.430 Y104.259 E46.85569

M104 S279.42857142857144
M109 S279.42857142857144
G0 F9000 X96.558 Y104.259
G1 F1800 X104.259 Y96.558 E47.21792

M104 S279.42857142857144
M109 S279.42857142857144
G0 X95.6 Y104.4
G0 X95.2 Y98.6
G0 X104.259 Y95.6
G0 X98.568 Y107.4
G0 X95.74 Y95.6
G0 X101.43 Y107.4
G0 X104.259 Y104.4
;LAYER:5
